assets/images/icon/iconic/others/badges/pocketcasts-badge.svg

<svg height="44" viewBox="0 0 167 44" width="167" xmlns="http://www.w3.org/2000/svg" xmlns:xlink="http://www.w3.org/1999/xlink"><mask id="a" fill="#fff"><path d="m0 .797h9.268v14.044h-9.268z" fill="#fff" fill-rule="evenodd"/></mask><g fill="none" fill-rule="nonzero"><rect fill="#fff" height="42" rx="8" stroke="#9aa0a6" stroke-width=".5" width="165" x="1" y="1"/><g transform="translate(8 8)"><path d="m28 14c0 7.7321482-6.2678518 14-14 14-7.73214815 0-14-6.2678518-14-14 0-7.73214815 6.26785185-14 14-14 7.7321482 0 14 6.26785185 14 14" fill="#f43e37"/><path d="m0 10.7692308c0-5.94768195 4.82154885-10.7692308 10.7692308-10.7692308 5.9476819 0 10.7692307 4.82154885 10.7692307 10.7692308h-2.6923077c0-4.46076147-3.6161616-8.07692311-8.076923-8.07692311-4.46076147 0-8.07692311 3.61616164-8.07692311 8.07692311 0 4.4607614 3.61616164 8.076923 8.07692311 8.076923v2.6923077c-5.94768195 0-10.7692308-4.8215488-10.7692308-10.7692307zm10.7692308 6.4615384c-3.56860918 0-6.46153849-2.8929293-6.46153849-6.4615384 0-3.56860918 2.89292931-6.46153849 6.46153849-6.46153849 3.5686091 0 6.4615384 2.89292931 6.4615384 6.46153849h-2.3496503c0-2.27093313-1.840955-4.11188814-4.1118881-4.11188814-2.27093313 0-4.11188814 1.84095501-4.11188814 4.11188814 0 2.2709331 1.84095501 4.1118881 4.11188814 4.1118881z" fill="#fff" transform="translate(3.111111 3.111111)"/></g><g fill="#5f6368" transform="translate(45 9)"><path d="m3.958 6.661h-3.722v-5.967h.926v5.115h2.796z"/><path d="m5.0345.8267c0-.3105.2441-.5459.5747-.5459.3311 0 .5747.2354.5747.5459 0 .3057-.2437.5415-.5747.5415-.3306 0-.5747-.2359-.5747-.5415zm.1323 1.3315h.8848v4.5029h-.8848z"/><path d="m9.1307 2.0713c1.0132 0 1.6748.4712 1.7612 1.2651h-.8516c-.083-.3306-.4053-.5415-.9097-.5415-.4966 0-.8726.2354-.8726.5869 0 .269.2275.4385.7153.5503l.7485.1733c.856.1987 1.2568.5669 1.2568 1.2285 0 .8477-.7896 1.4141-1.8647 1.4141-1.0713 0-1.77-.4839-1.8486-1.2817h.8892c.1118.3472.4424.562.98.562.5542 0 .9473-.248.9473-.6079 0-.2686-.2109-.4424-.6621-.5498l-.7856-.1821c-.856-.2026-1.2529-.5869-1.2529-1.2568 0-.7984.7319-1.3604 1.7495-1.3604z"/><path d="m13.346 1.0371v1.1416h.9756v.7485h-.9756v2.3154c0 .4717.1943.6782.6367.6782.1362 0 .2148-.0083.3389-.0205v.7402c-.1445.0244-.3101.0454-.4839.0454-.9883 0-1.3809-.3477-1.3809-1.2158v-2.543h-.7153v-.7485h.7153v-1.1415z"/><path d="m19.2532 5.4453c-.2026.8066-.9224 1.3027-1.9517 1.3027-1.2905 0-2.0801-.8848-2.0801-2.3242 0-1.439.8062-2.3525 2.0757-2.3525 1.2529 0 2.0098.856 2.0098 2.27v.3101h-3.1802v.0498c.0293.7896.4883 1.29 1.1992 1.29.5376 0 .9058-.1943 1.0713-.5459zm-3.1264-1.4512h2.2744c-.0205-.707-.4507-1.1665-1.1079-1.1665-.6577 0-1.1167.4634-1.1665 1.1665z"/><path d="m20.4993 2.1582h.856v.7153h.0664c.2188-.5005.6655-.8022 1.3438-.8022 1.0049 0 1.5591.6035 1.5591 1.6748v2.915h-.8892v-2.6919c0-.7236-.3145-1.0835-.9717-1.0835-.6577 0-1.0752.4385-1.0752 1.1411v2.6343h-.8892z"/><path d="m27.9183 4.4077c0-1.4517.8105-2.3364 2.1255-2.3364 1.3105 0 2.1211.8848 2.1211 2.3364 0 1.4595-.8062 2.3403-2.1211 2.3403-1.3194 0-2.1255-.8808-2.1255-2.3403zm3.333 0c0-.9761-.4385-1.5469-1.2075-1.5469-.7734 0-1.2075.5708-1.2075 1.5469 0 .9839.4341 1.5503 1.2075 1.5503.769 0 1.2075-.5703 1.2075-1.5503z"/><path d="m33.3572 2.1582h.856v.7153h.0664c.2192-.5005.6655-.8022 1.3438-.8022 1.0049 0 1.5591.6035 1.5591 1.6748v2.915h-.8892v-2.6919c0-.7236-.3145-1.0835-.9717-1.0835-.6577 0-1.0752.4385-1.0752 1.1411v2.6343h-.8892z"/></g><g fill="#3c4043" transform="translate(44 19)"><path d="m3.8456703 8.28152706c1.51459695 0 2.27125635-.80353275 2.27125635-2.50837606 0-1.74621083-.7566594-2.40809117-2.23035584-2.40809117h-.73620915v4.91646723zm-3.84592593 6.55988614v-14.04490038h3.88682644c3.49954974 0 5.38097313 1.62461538 5.38097313 4.87635327 0 3.6303134-2.23035585 5.13709401-5.29789398 5.13709401h-.79883805v4.0314531z" mask="url(#a)" transform="translate(0 .877744)"/><path d="m14.0508584 7.57401709c-.9215396 0-1.4941467.96273505-1.4941467 2.92957261 0 1.985641.5943355 2.9684331 1.5350472 2.9684331.9202614 0 1.5133188-.9827921 1.5133188-2.9483761 0-1.98689456-.6135076-2.94962961-1.5542193-2.94962961m.0204503 8.34621091c-2.4144082 0-4.33801023-1.8251852-4.33801023-5.3777779 0-3.59019939 1.94405233-5.43669512 4.35846043-5.43669512 2.3926797 0 4.336732 1.84649573 4.336732 5.39783472 0 3.571396-1.9440523 5.4166383-4.3571822 5.4166383"/><path d="m23.9064749 15.880114c-2.8438634 0-4.5207843-1.9467807-4.5207843-5.3376639 0-3.30940166 1.7190996-5.39658116 4.6843863-5.39658116.9407118 0 1.6577488.18051283 2.3530575.44125357l-.4499056 2.52843305c-.4920843-.22062678-1.0646914-.40239317-1.6577488-.40239317-1.370167 0-2.0859259 1.16455841-2.0859259 2.79042731 0 1.7650143.7157589 2.8079772 2.1281045 2.8079772.5317067 0 1.0838636-.1604558 1.6769209-.3810825l.4511837 2.4281481c-.717037.3008547-1.6577486.5214815-2.5792883.5214815"/><path d="m30.655 10.743v4.977h-2.965v-14.466h2.965v8.567l2.415-4.494h3.253l-2.885 4.975 2.967 5.418h-3.294z"/><path d="m42.0463617 9.82039886c-.0613508-1.56444444-.5317066-2.48706553-1.4315179-2.48706553-.9215395 0-1.3918954.96273505-1.4532462 2.48706553zm-5.6468264.74336184c0-3.57264959 1.8622512-5.45800572 4.2153085-5.45800572 2.4962092 0 4.1744082 1.86655271 4.1744082 5.51817662v.9426781h-5.6276544c.1022514 1.4240456.8998113 2.1272935 2.2099057 2.1272935.7771096 0 1.6986492-.2419374 2.5371096-.6217664l.5317067 2.0470655c-1.0237909.5001709-2.2303559.7609117-3.3768483.7609117-2.5971822 0-4.663936-1.3438177-4.663936-5.3163533z"/><path d="m46.7894146 12.6103248v-4.89641027h-1.1452142v-2.38803419h1.1452142v-2.72774928h2.9461148v2.72774928h2.2495279v2.38803419h-2.2495279v4.47396007c0 .8637037.4703558 1.2247294 1.2679157 1.2247294.3476544 0 .6556863-.0601709.9816122-.1403989v2.3679772c-.4499055.1391453-1.0838634.2206268-1.8200726.2206268-2.2508061 0-3.3755701-.9038176-3.3755701-3.2504843"/><path d="m62.1496006 15.880114c-3.7245026 0-6.0558315-2.3266097-6.0558315-7.16284905 0-4.65572649 2.3939579-7.20296296 6.0762817-7.20296296 1.2270152 0 2.249528.2394302 3.0470879.54153846l-.489528 2.84934474c-.6339578-.26074075-1.3714451-.5014245-2.2508061-.5014245-1.9645025 0-3.1301669 1.52558404-3.1301669 4.27339031 0 2.8292877 1.1043137 4.3135043 3.1915177 4.3135043.7975599 0 1.5554975-.2005698 2.2086274-.480114l.5125346 2.7691169c-.8806392.3610256-1.9645026.6004558-3.1097168.6004558"/><path d="m71.4124154 13.5125128v-2.4682621c-.2863036-.0601709-.6122295-.0789743-.961162-.0789743-.6135076 0-.9611619.1190882-1.2065649.3397151-.2249528.2419373-.3489325.6029629-.3489325 1.1244444 0 1.042963.4703558 1.4654131 1.2896442 1.4654131.409005 0 .8384604-.1604559 1.2270152-.3823362m-2.4540305 2.3479203c-1.6577487 0-2.8234132-1.042963-2.8234132-3.2905984 0-1.0041025.2863035-1.8464957.8384604-2.3679772.5930574-.60170935 1.4736964-.90256406 2.8029629-.90256406.5726072 0 1.1452143.08022793 1.6360204.18051283v-.58290598c0-.88250712-.4077269-1.36387465-1.5145969-1.36387465-.8576326 0-1.7791721.24193732-2.5971823.58165243l-.5521569-2.20626781c1.0646913-.42119658 2.3108787-.74210827 3.6823239-.74210827 2.6802615 0 3.8868264 1.12319089 3.8868264 3.51122507v5.19601134l.2249528 1.8464958h-2.576732l-.3681046-.9025641c-.7783878.6618804-1.5350471 1.042963-2.6393609 1.042963"/><path d="m79.5293769 15.9009231c-1.4315178 0-2.7607843-.3610257-3.9072767-.9639887l.5930574-2.3479201c1.1260421.6029629 2.2508061.9639886 3.2745969.9639886.7566594 0 1.1656645-.3209117 1.1656645-.7621653 0-.4412535-.2466811-.6418233-1.678199-1.2034188-1.9836746-.7822222-2.9665649-1.525584-2.9665649-3.27179486 0-1.9254701 1.3509948-3.17025642 3.7232244-3.17025642 1.2065649 0 2.3134349.28205129 3.3154974.76216524l-.5943355 2.34792023c-.9202614-.46131054-1.8609732-.76216524-2.7211619-.76216524-.6339579 0-.9803341.26074074-.9803341.68193732 0 .40113961.2236746.6017094 1.6360204 1.1645584 2.2290776.86245013 3.0061873 1.66472933 3.0061873 3.30940173 0 2.1686609-1.5529412 3.2517379-3.8663762 3.2517379"/><path d="m85.3983442 12.6103248v-4.89641027h-1.1452142v-2.38803419h1.1452142v-2.72774928h2.9461148v2.72774928h2.2495279v2.38803419h-2.2495279v4.47396007c0 .8637037.4703558 1.2247294 1.2679157 1.2247294.3476543 0 .6556863-.0601709.9816122-.1403989v2.3679772c-.4499056.1391453-1.0838634.2206268-1.8200726.2206268-2.2508061 0-3.3755701-.9038176-3.3755701-3.2504843"/><path d="m95.7057836 15.9009231c-1.4315178 0-2.7607843-.3610257-3.9072767-.9639887l.5930574-2.3479201c1.1260421.6029629 2.2508061.9639886 3.2745969.9639886.7566595 0 1.1656645-.3209117 1.1656645-.7621653 0-.4412535-.2466812-.6418233-1.6781989-1.2034188-1.9836747-.7822222-2.9665651-1.525584-2.9665651-3.27179486 0-1.9254701 1.3509949-3.17025642 3.7232244-3.17025642 1.2065651 0 2.313435.28205129 3.3154975.76216524l-.5943355 2.34792023c-.9202614-.46131054-1.8609732-.76216524-2.721162-.76216524-.6339578 0-.980334.26074074-.980334.68193732 0 .40113961.2236747.6017094 1.6360203 1.1645584 2.2290777.86245013 3.0061873 1.66472933 3.0061873 3.30940173 0 2.1686609-1.5529411 3.2517379-3.8663761 3.2517379"/></g></g></svg>

<svg xmlns="http://www.w3.org/2000/svg" xmlns:xlink="http://www.w3.org/1999/xlink" width="167" height="44" version="1.1" viewBox="0 0 167 44"><title>badges/pocketcasts-badge</title><defs><polygon id="path-1" points="0 .797 9.268 .797 9.268 14.841 0 14.841"/></defs><g id="Page-1" fill="none" fill-rule="evenodd" stroke="none" stroke-width="1"><g id="badges/pocketcasts-badge" transform="translate(1.000000, 1.000000)"><g id="Group" fill="#FFF" fill-rule="nonzero" stroke="#9AA0A6" stroke-width=".5"><g id="Rectangle"><rect width="165" height="42" x="0" y="0" rx="8"/></g></g><g id="../icons/pocketcasts-icon" fill-rule="nonzero" transform="translate(7.000000, 7.000000)"><g id="Group"><path id="Fill-23" fill="#F43E37" d="M28,14 C28,21.7321482 21.7321482,28 14,28 C6.26785185,28 0,21.7321482 0,14 C0,6.26785185 6.26785185,0 14,0 C21.7321482,0 28,6.26785185 28,14"/><g id="Glyph" fill="#FFF" transform="translate(3.111111, 3.111111)"><path id="Path" d="M0,10.7692308 C0,4.82154885 4.82154885,0 10.7692308,0 C16.7169127,0 21.5384615,4.82154885 21.5384615,10.7692308 L18.8461538,10.7692308 C18.8461538,6.30846933 15.2299922,2.69230769 10.7692308,2.69230769 C6.30846933,2.69230769 2.69230769,6.30846933 2.69230769,10.7692308 C2.69230769,15.2299922 6.30846933,18.8461538 10.7692308,18.8461538 L10.7692308,21.5384615 C4.82154885,21.5384615 0,16.7169127 0,10.7692308 Z M10.7692308,17.2307692 C7.20062162,17.2307692 4.30769231,14.3378399 4.30769231,10.7692308 C4.30769231,7.20062162 7.20062162,4.30769231 10.7692308,4.30769231 C14.3378399,4.30769231 17.2307692,7.20062162 17.2307692,10.7692308 L14.8811189,10.7692308 C14.8811189,8.49829767 13.0401639,6.65734266 10.7692308,6.65734266 C8.49829767,6.65734266 6.65734266,8.49829767 6.65734266,10.7692308 C6.65734266,13.0401639 8.49829767,14.8811189 10.7692308,14.8811189 L10.7692308,17.2307692 Z"/></g></g></g><g id="Group" fill="#5F6368" fill-rule="nonzero" transform="translate(44.000000, 8.000000)"><g id="Listen-On"><polygon id="Path" points="3.958 6.661 .236 6.661 .236 .694 1.162 .694 1.162 5.809 3.958 5.809"/><path id="Shape" d="M5.0345,0.8267 C5.0345,0.5162 5.2786,0.2808 5.6092,0.2808 C5.9403,0.2808 6.1839,0.5162 6.1839,0.8267 C6.1839,1.1324 5.9402,1.3682 5.6092,1.3682 C5.2786,1.3682 5.0345,1.1323 5.0345,0.8267 Z M5.1668,2.1582 L6.0516,2.1582 L6.0516,6.6611 L5.1668,6.6611 L5.1668,2.1582 Z"/><path id="Path" d="M9.1307,2.0713 C10.1439,2.0713 10.8055,2.5425 10.8919,3.3364 L10.0403,3.3364 C9.9573,3.0058 9.635,2.7949 9.1306,2.7949 C8.634,2.7949 8.258,3.0303 8.258,3.3818 C8.258,3.6508 8.4855,3.8203 8.9733,3.9321 L9.7218,4.1054 C10.5778,4.3041 10.9786,4.6723 10.9786,5.3339 C10.9786,6.1816 10.189,6.748 9.1139,6.748 C8.0426,6.748 7.3439,6.2641 7.2653,5.4663 L8.1545,5.4663 C8.2663,5.8135 8.5969,6.0283 9.1345,6.0283 C9.6887,6.0283 10.0818,5.7803 10.0818,5.4204 C10.0818,5.1518 9.8709,4.978 9.4197,4.8706 L8.6341,4.6885 C7.7781,4.4859 7.3812,4.1016 7.3812,3.4317 C7.3812,2.6333 8.1131,2.0713 9.1307,2.0713 Z"/><path id="Path" d="M13.346,1.0371 L13.346,2.1787 L14.3216,2.1787 L14.3216,2.9272 L13.346,2.9272 L13.346,5.2426 C13.346,5.7143 13.5403,5.9208 13.9827,5.9208 C14.1189,5.9208 14.1975,5.9125 14.3216,5.9003 L14.3216,6.6405 C14.1771,6.6649 14.0115,6.6859 13.8377,6.6859 C12.8494,6.6859 12.4568,6.3382 12.4568,5.4701 L12.4568,2.9271 L11.7415,2.9271 L11.7415,2.1786 L12.4568,2.1786 L12.4568,1.0371 L13.346,1.0371 Z"/><path id="Shape" d="M19.2532,5.4453 C19.0506,6.2519 18.3308,6.748 17.3015,6.748 C16.011,6.748 15.2214,5.8632 15.2214,4.4238 C15.2214,2.9848 16.0276,2.0713 17.2971,2.0713 C18.55,2.0713 19.3069,2.9273 19.3069,4.3413 L19.3069,4.6514 L16.1267,4.6514 L16.1267,4.7012 C16.156,5.4908 16.615,5.9912 17.3259,5.9912 C17.8635,5.9912 18.2317,5.7969 18.3972,5.4453 L19.2532,5.4453 Z M16.1268,3.9941 L18.4012,3.9941 C18.3807,3.2871 17.9505,2.8276 17.2933,2.8276 C16.6356,2.8276 16.1766,3.291 16.1268,3.9941 Z"/><path id="Path" d="M20.4993,2.1582 L21.3553,2.1582 L21.3553,2.8735 L21.4217,2.8735 C21.6405,2.373 22.0872,2.0713 22.7655,2.0713 C23.7704,2.0713 24.3246,2.6748 24.3246,3.7461 L24.3246,6.6611 L23.4354,6.6611 L23.4354,3.9692 C23.4354,3.2456 23.1209,2.8857 22.4637,2.8857 C21.806,2.8857 21.3885,3.3242 21.3885,4.0268 L21.3885,6.6611 L20.4993,6.6611 L20.4993,2.1582 Z"/><path id="Shape" d="M27.9183,4.4077 C27.9183,2.956 28.7288,2.0713 30.0438,2.0713 C31.3543,2.0713 32.1649,2.9561 32.1649,4.4077 C32.1649,5.8672 31.3587,6.748 30.0438,6.748 C28.7244,6.748 27.9183,5.8672 27.9183,4.4077 Z M31.2513,4.4077 C31.2513,3.4316 30.8128,2.8608 30.0438,2.8608 C29.2704,2.8608 28.8363,3.4316 28.8363,4.4077 C28.8363,5.3916 29.2704,5.958 30.0438,5.958 C30.8128,5.958 31.2513,5.3877 31.2513,4.4077 Z"/><path id="Path" d="M33.3572,2.1582 L34.2132,2.1582 L34.2132,2.8735 L34.2796,2.8735 C34.4988,2.373 34.9451,2.0713 35.6234,2.0713 C36.6283,2.0713 37.1825,2.6748 37.1825,3.7461 L37.1825,6.6611 L36.2933,6.6611 L36.2933,3.9692 C36.2933,3.2456 35.9788,2.8857 35.3216,2.8857 C34.6639,2.8857 34.2464,3.3242 34.2464,4.0268 L34.2464,6.6611 L33.3572,6.6611 L33.3572,2.1582 Z"/></g></g><g id="wordmark" transform="translate(43.000000, 18.000000)"><g id="Fill-1-Clipped" transform="translate(0.000000, 0.877744)"><mask id="mask-2" fill="#fff"><use xlink:href="#path-1"/></mask><path id="Fill-1" fill="#3C4043" fill-rule="nonzero" d="M3.8456703,8.28152706 C5.36026725,8.28152706 6.11692665,7.47799431 6.11692665,5.773151 C6.11692665,4.02694017 5.36026725,3.36505983 3.88657081,3.36505983 L3.15036166,3.36505983 L3.15036166,8.28152706 L3.8456703,8.28152706 Z M-0.000255628177,14.8414132 L-0.000255628177,0.79651282 L3.88657081,0.79651282 C7.38612055,0.79651282 9.26754394,2.4211282 9.26754394,5.67286609 C9.26754394,9.30317949 7.03718809,10.8099601 3.96964996,10.8099601 L3.17081191,10.8099601 L3.17081191,14.8414132 L-0.000255628177,14.8414132 Z" mask="url(#mask-2)"/></g><path id="Fill-4" fill="#3C4043" fill-rule="nonzero" d="M14.0508584,7.57401709 C13.1293188,7.57401709 12.5567117,8.53675214 12.5567117,10.5035897 C12.5567117,12.4892307 13.1510472,13.4720228 14.0917589,13.4720228 C15.0120203,13.4720228 15.6050777,12.4892307 15.6050777,10.5236467 C15.6050777,8.53675214 14.9915701,7.57401709 14.0508584,7.57401709 M14.0713087,15.920228 C11.6569005,15.920228 9.73329847,14.0950428 9.73329847,10.5424501 C9.73329847,6.95225071 11.6773508,5.10575498 14.0917589,5.10575498 C16.4844386,5.10575498 18.4284909,6.95225071 18.4284909,10.5035897 C18.4284909,14.0749857 16.4844386,15.920228 14.0713087,15.920228"/><path id="Fill-6" fill="#3C4043" fill-rule="nonzero" d="M23.9064749,15.880114 C21.0626115,15.880114 19.3856906,13.9333333 19.3856906,10.5424501 C19.3856906,7.23304844 21.1047902,5.14586894 24.0700769,5.14586894 C25.0107887,5.14586894 25.7278257,5.32638177 26.4231344,5.58712251 L25.9732288,8.11555556 C25.4811445,7.89492878 24.9085374,7.71316239 24.31548,7.71316239 C22.945313,7.71316239 22.2295541,8.8777208 22.2295541,10.5035897 C22.2295541,12.268604 22.945313,13.3115669 24.3576586,13.3115669 C24.8893653,13.3115669 25.4415222,13.1511111 26.0345795,12.9304844 L26.4857632,15.3586325 C25.7687262,15.6594872 24.8280146,15.880114 23.9064749,15.880114"/><polygon id="Fill-8" fill="#3C4043" fill-rule="nonzero" points="30.655 10.743 30.655 15.72 27.69 15.72 27.69 1.254 30.655 1.254 30.655 9.821 33.07 5.327 36.323 5.327 33.438 10.302 36.405 15.72 33.111 15.72"/><path id="Fill-10" fill="#3C4043" fill-rule="nonzero" d="M42.0463617,9.82039886 C41.9850109,8.25595442 41.5146551,7.33333333 40.6148438,7.33333333 C39.6933043,7.33333333 39.2229484,8.29606838 39.1615976,9.82039886 L42.0463617,9.82039886 Z M36.3995353,10.5637607 C36.3995353,6.99111111 38.2617865,5.10575498 40.6148438,5.10575498 C43.111053,5.10575498 44.789252,6.97230769 44.789252,10.6239316 L44.789252,11.5666097 L39.1615976,11.5666097 C39.263849,12.9906553 40.0614089,13.6939032 41.3715033,13.6939032 C42.1486129,13.6939032 43.0701525,13.4519658 43.9086129,13.0721368 L44.4403196,15.1192023 C43.4165287,15.6193732 42.2099637,15.880114 41.0634713,15.880114 C38.4662891,15.880114 36.3995353,14.5362963 36.3995353,10.5637607 Z"/><path id="Fill-12" fill="#3C4043" fill-rule="nonzero" d="M46.7894146,12.6103248 L46.7894146,7.71391453 L45.6442004,7.71391453 L45.6442004,5.32588034 L46.7894146,5.32588034 L46.7894146,2.59813106 L49.7355294,2.59813106 L49.7355294,5.32588034 L51.9850573,5.32588034 L51.9850573,7.71391453 L49.7355294,7.71391453 L49.7355294,12.1878746 C49.7355294,13.0515783 50.2058852,13.412604 51.0034451,13.412604 C51.3510995,13.412604 51.6591314,13.3524331 51.9850573,13.2722051 L51.9850573,15.6401823 C51.5351518,15.7793276 50.9011939,15.8608091 50.1649847,15.8608091 C47.9141786,15.8608091 46.7894146,14.9569915 46.7894146,12.6103248"/><path id="Fill-14" fill="#3C4043" fill-rule="nonzero" d="M62.1496006,15.880114 C58.425098,15.880114 56.0937691,13.5535043 56.0937691,8.71726495 C56.0937691,4.06153846 58.487727,1.51430199 62.1700508,1.51430199 C63.397066,1.51430199 64.4195788,1.75373219 65.2171387,2.05584045 L64.7276107,4.90518519 C64.0936529,4.64444444 63.3561656,4.40376069 62.4768046,4.40376069 C60.5123021,4.40376069 59.3466377,5.92934473 59.3466377,8.677151 C59.3466377,11.5064387 60.4509514,12.9906553 62.5381554,12.9906553 C63.3357153,12.9906553 64.0936529,12.7900855 64.7467828,12.5105413 L65.2593174,15.2796582 C64.3786782,15.6406838 63.2948148,15.880114 62.1496006,15.880114"/><path id="Fill-16" fill="#3C4043" fill-rule="nonzero" d="M71.4124154,13.5125128 L71.4124154,11.0442507 C71.1261118,10.9840798 70.8001859,10.9652764 70.4512534,10.9652764 C69.8377458,10.9652764 69.4900915,11.0843646 69.2446885,11.3049915 C69.0197357,11.5469288 68.895756,11.9079544 68.895756,12.4294359 C68.895756,13.4723989 69.3661118,13.894849 70.1854002,13.894849 C70.5944052,13.894849 71.0238606,13.7343931 71.4124154,13.5125128 M68.9583849,15.8604331 C67.3006362,15.8604331 66.1349717,14.8174701 66.1349717,12.5698347 C66.1349717,11.5657322 66.4212752,10.723339 66.9734321,10.2018575 C67.5664895,9.60014815 68.4471285,9.29929344 69.776395,9.29929344 C70.3490022,9.29929344 70.9216093,9.37952137 71.4124154,9.47980627 L71.4124154,8.89690029 C71.4124154,8.01439317 71.0046885,7.53302564 69.8978185,7.53302564 C69.0401859,7.53302564 68.1186464,7.77496296 67.3006362,8.11467807 L66.7484793,5.90841026 C67.8131706,5.48721368 69.059358,5.16630199 70.4308032,5.16630199 C73.1110647,5.16630199 74.3176296,6.28949288 74.3176296,8.67752706 L74.3176296,13.8735384 L74.5425824,15.7200342 L71.9658504,15.7200342 L71.5977458,14.8174701 C70.819358,15.4793505 70.0626987,15.8604331 68.9583849,15.8604331"/><path id="Fill-18" fill="#3C4043" fill-rule="nonzero" d="M79.5293769,15.9009231 C78.0978591,15.9009231 76.7685926,15.5398974 75.6221002,14.9369344 L76.2151576,12.5890143 C77.3411997,13.1919772 78.4659637,13.5530029 79.4897545,13.5530029 C80.2464139,13.5530029 80.655419,13.2320912 80.655419,12.7908376 C80.655419,12.3495841 80.4087379,12.1490143 78.97722,11.5874188 C76.9935454,10.8051966 76.0106551,10.0618348 76.0106551,8.31562394 C76.0106551,6.39015384 77.3616499,5.14536752 79.7338795,5.14536752 C80.9404444,5.14536752 82.0473144,5.42741881 83.0493769,5.90753276 L82.4550414,8.25545299 C81.53478,7.79414245 80.5940682,7.49328775 79.7338795,7.49328775 C79.0999216,7.49328775 78.7535454,7.75402849 78.7535454,8.17522507 C78.7535454,8.57636468 78.97722,8.77693447 80.3895658,9.33978347 C82.6186434,10.2022336 83.3957531,11.0045128 83.3957531,12.6491852 C83.3957531,14.8178461 81.8428119,15.9009231 79.5293769,15.9009231"/><path id="Fill-20" fill="#3C4043" fill-rule="nonzero" d="M85.3983442,12.6103248 L85.3983442,7.71391453 L84.25313,7.71391453 L84.25313,5.32588034 L85.3983442,5.32588034 L85.3983442,2.59813106 L88.344459,2.59813106 L88.344459,5.32588034 L90.5939869,5.32588034 L90.5939869,7.71391453 L88.344459,7.71391453 L88.344459,12.1878746 C88.344459,13.0515783 88.8148148,13.412604 89.6123747,13.412604 C89.960029,13.412604 90.268061,13.3524331 90.5939869,13.2722051 L90.5939869,15.6401823 C90.1440813,15.7793276 89.5101235,15.8608091 88.7739143,15.8608091 C86.5231082,15.8608091 85.3983442,14.9569915 85.3983442,12.6103248"/><path id="Fill-22" fill="#3C4043" fill-rule="nonzero" d="M95.7057836,15.9009231 C94.2742658,15.9009231 92.9449993,15.5398974 91.7985069,14.9369344 L92.3915643,12.5890143 C93.5176064,13.1919772 94.6423704,13.5530029 95.6661612,13.5530029 C96.4228207,13.5530029 96.8318257,13.2320912 96.8318257,12.7908376 C96.8318257,12.3495841 96.5851445,12.1490143 95.1536268,11.5874188 C93.1699521,10.8051966 92.1870617,10.0618348 92.1870617,8.31562394 C92.1870617,6.39015384 93.5380566,5.14536752 95.9102861,5.14536752 C97.1168512,5.14536752 98.2237211,5.42741881 99.2257836,5.90753276 L98.6314481,8.25545299 C97.7111867,7.79414245 96.7704749,7.49328775 95.9102861,7.49328775 C95.2763283,7.49328775 94.9299521,7.75402849 94.9299521,8.17522507 C94.9299521,8.57636468 95.1536268,8.77693447 96.5659724,9.33978347 C98.7950501,10.2022336 99.5721597,11.0045128 99.5721597,12.6491852 C99.5721597,14.8178461 98.0192186,15.9009231 95.7057836,15.9009231"/></g></g></g></svg>
